images/download-icon.svg

<svg width="26" height="26" viewBox="0 0 26 26" fill="none" xmlns="http://www.w3.org/2000/svg">
<path fill-rule="evenodd" clip-rule="evenodd" d="M14.5806 1.58106C14.5806 0.907957 14.035 0.362305 13.3618 0.362305C12.6888 0.362305 12.1431 0.907957 12.1431 1.58106V13.8635L7.88005 9.60034C7.4041 9.12438 6.63242 9.12438 6.15648 9.60034C5.68053 10.0763 5.68053 10.8479 6.15648 11.3239L12.493 17.6605C12.5921 17.7612 12.7087 17.8448 12.8377 17.9064C12.9964 17.9822 13.1742 18.0246 13.3618 18.0246C13.5443 18.0246 13.7173 17.9845 13.8726 17.9127C13.9779 17.8641 14.0778 17.7997 14.1685 17.7195C14.1894 17.7011 14.2096 17.6819 14.2291 17.6622L20.5673 11.3239C21.0433 10.8479 21.0433 10.0763 20.5673 9.60034C20.0914 9.12438 19.3197 9.12438 18.8437 9.60034L14.5806 13.8635V1.58106ZM1.94336 15.5871C2.61646 15.5871 3.16211 16.1327 3.16211 16.8058V21.8807C3.16211 22.2305 3.30104 22.5659 3.54835 22.8132C3.79566 23.0605 4.13108 23.1994 4.48082 23.1994H22.243C22.5928 23.1994 22.9282 23.0605 23.1755 22.8132C23.4229 22.5659 23.5618 22.2305 23.5618 21.8807V16.8058C23.5618 16.1327 24.1074 15.5871 24.7805 15.5871C25.4536 15.5871 25.9993 16.1327 25.9993 16.8058V21.8807C25.9993 22.8769 25.6035 23.8323 24.8991 24.5368C24.1946 25.2412 23.2393 25.6369 22.243 25.6369H4.48082C3.48461 25.6369 2.52921 25.2412 1.82478 24.5368C1.12036 23.8323 0.724609 22.8769 0.724609 21.8807V16.8058C0.724609 16.1327 1.27027 15.5871 1.94336 15.5871Z" fill="#636363"/>
</svg>

<svg width="26" height="26" fill="none" xmlns="http://www.w3.org/2000/svg"><path fill-rule="evenodd" clip-rule="evenodd" d="M14.58 1.581a1.219 1.219 0 10-2.437 0v12.283L7.88 9.6a1.219 1.219 0 10-1.724 1.724l6.337 6.336a1.224 1.224 0 00.869.365 1.214 1.214 0 00.867-.363l6.338-6.338A1.219 1.219 0 1018.844 9.6l-4.263 4.264V1.58zM1.944 15.587c.673 0 1.22.546 1.22 1.219v5.075a1.319 1.319 0 001.318 1.318h17.762a1.319 1.319 0 001.319-1.318v-5.075a1.219 1.219 0 112.437 0v5.075a3.757 3.757 0 01-3.756 3.756H4.481A3.756 3.756 0 01.725 21.88v-5.075c0-.673.545-1.219 1.218-1.219z" fill="#636363"/></svg>
